!!!OTL: Bauernkalender
!!!ARE: Europa, Mitteleuropa, Deutschland
!!!SCT: A0452
!!!YEM: Copyright 1995, estate of Helmut Schaffrath.
**kern
*ICvox
*Ivox
*M4/2
*k[b-e-]
*g:
{2g
=1
2g
2g
2b-
2b-
=2
2a
2f#
2g}
{2a
=3
2b-
2b-
2a
2a
=4
1g
2r}
{2g
=5
2g
2g
2b-
2b-
=6
2a
2f#
2g}
{2a
=7
2b-
2b-
2a
2a
=8
1g
2r}
{2b-
=9
2a
2a
2a
2b-
=10
2a
1dd}
{2dd
=11
2dd
2cc
2b-
2b-
=12
1a
2r}
{2a
=13
2b-
2cc
2a
2dd
=14
1dd
2b-}
{2dd
=15
2dd
2dd
2cc
2cc
=16
1dd
2dd
2g
=17
2cc
2b-
2a
2a
=18
1.g}
==
!!!AGN: Romanze, Ballade, Lied
!! Forster II 1540 No. 51.
!!!ONB: ESAC (Essen Associative Code) Database: ALTDEU
!!!AMT: simple quadruple
!!!AIN: vox
!!!EED: Helmut Schaffrath
!!!EEV: 1.0
*-
